public/nuxt_images/logo_only.svg

<svg width="29" height="29" viewBox="0 0 29 29" fill="none" xmlns="http://www.w3.org/2000/svg">
<path d="M20.0332 12.7432C20.0332 12.7432 20.0332 12.7297 20.0332 12.7208C20.0243 11.9944 19.6353 11.3219 19.0094 10.9632L15.8798 9.15183C15.5892 8.98145 15.2538 8.89178 14.9096 8.88281C14.8604 8.88281 14.8157 8.88281 14.7665 8.8873C14.5251 8.90075 14.2971 8.94558 14.0825 9.03077C13.9975 9.06664 13.917 9.10699 13.8366 9.15183L11.932 10.2548L10.7472 10.9408C10.6756 10.9811 10.6086 11.026 10.546 11.0753C10.546 11.0753 10.5192 11.0932 10.5147 11.0932C10.2643 11.277 10.0676 11.5147 9.929 11.7792C9.92006 11.7971 9.90665 11.8151 9.89771 11.833C9.88877 11.8509 9.87982 11.8689 9.87535 11.8868C9.75017 12.1603 9.68311 12.4697 9.68311 12.797V16.2673V16.3211C9.68311 16.3838 9.68758 16.4511 9.69652 16.5318C9.69652 16.5721 9.70546 16.617 9.7144 16.6663C9.75017 16.9084 9.83064 17.1371 9.94242 17.3433C10.1257 17.6841 10.3984 17.9665 10.7338 18.1593L13.8097 19.9393C13.9215 20.0021 14.0065 20.0424 14.0914 20.0783C14.306 20.168 14.534 20.2173 14.7665 20.2263C14.7754 20.2263 14.7844 20.2263 14.7933 20.2263C15.0124 20.2307 15.236 20.2083 15.4506 20.1411C15.5981 20.0962 15.7456 20.0335 15.8798 19.9528L18.987 18.1548C19.3045 17.971 19.5682 17.7065 19.7515 17.3882C19.9349 17.0698 20.0332 16.7066 20.0332 16.3435V12.7432Z" fill="#000091"/>
<path d="M9.68213 19.4043V23.8379V25.1148L14.6173 27.9723V22.2618L13.4671 21.5965L9.68213 19.4043Z" fill="#000091"/>
<path d="M19.375 10.6827C19.375 10.6827 19.4153 10.7139 19.4333 10.7273C19.4333 10.7273 19.4422 10.7318 19.4467 10.7363C19.4781 10.7586 19.5095 10.7854 19.5409 10.8077C19.5409 10.8077 19.5454 10.8122 19.5499 10.8166C19.5544 10.8211 19.5633 10.8256 19.5678 10.83C19.6037 10.8613 19.6441 10.8925 19.6755 10.9238C19.6844 10.9327 19.6934 10.9416 19.7024 10.9506C19.7248 10.9729 19.7472 10.9952 19.7696 11.0175C19.7786 11.0265 19.7876 11.0354 19.7921 11.0399C19.8235 11.0756 19.8549 11.1113 19.8863 11.147C19.9042 11.1649 19.9177 11.1872 19.9311 11.2051C19.9401 11.2185 19.9535 11.2319 19.9625 11.2453C19.9715 11.2542 19.9804 11.2676 19.9894 11.2765C20.0208 11.3167 20.0477 11.3613 20.0746 11.406C20.1015 11.4506 20.1284 11.4908 20.1554 11.5355C20.1823 11.5846 20.2047 11.6337 20.2316 11.6828C20.254 11.7275 20.272 11.7676 20.2899 11.8123C20.3078 11.8525 20.3213 11.8971 20.3348 11.9373C20.3348 11.9462 20.3392 11.9507 20.3437 11.9596C20.3437 11.9686 20.3482 11.9775 20.3527 11.9819C20.3662 12.0221 20.3796 12.0623 20.3931 12.1025C20.411 12.1695 20.4245 12.2364 20.4334 12.3079C20.4334 12.3079 20.4334 12.3123 20.4334 12.3168C20.4334 12.3257 20.4379 12.3391 20.4379 12.3481C20.4379 12.3704 20.4469 12.3882 20.4514 12.4106C20.4648 12.5133 20.4738 12.6204 20.4738 12.7276V16.1967L21.1645 16.5941V10.8836L16.1951 8.02612V8.84318L19.2225 10.5845C19.2718 10.6112 19.3211 10.6425 19.3705 10.6782L19.375 10.6827Z" fill="#000091"/>
<path d="M3 8.02612V13.7595L7.96942 16.6284V10.895L3 8.02612Z" fill="#000091"/>
<path d="M19.9846 17.8342C19.9445 17.8926 19.8999 17.9419 19.8554 17.9958C19.8241 18.0317 19.7929 18.0676 19.7617 18.1035C19.7127 18.1573 19.6547 18.2022 19.6012 18.2516C19.5745 18.274 19.5477 18.301 19.521 18.3279L20.368 18.8216C20.4349 18.862 20.4795 18.9338 20.4795 19.0146V23.8032L21.166 24.2027V18.4625L20.0203 17.7938C20.0203 17.7938 19.998 17.8208 19.9891 17.8342H19.9846Z" fill="#000091"/>
<path d="M13.7952 7.64596V8.67754C13.7952 8.67754 13.8264 8.66861 13.8442 8.65968C13.9333 8.61949 14.0313 8.58823 14.1248 8.56144C14.2006 8.53911 14.2763 8.52124 14.3565 8.50785C14.4322 8.49445 14.5034 8.48105 14.5792 8.47212C14.6059 8.47212 14.6282 8.46319 14.6549 8.45872V7.11454L9.71973 4.25647V5.15408L13.6839 7.44947C13.7507 7.48966 13.7952 7.56111 13.7952 7.64149V7.64596Z" fill="#000091"/>
<path d="M3 21.3142L7.96942 24.1687V18.4552L3 15.6007V21.3142Z" fill="#000091"/>
<path d="M26.545 21.3139V15.6005L21.6099 18.455V24.1684L26.545 21.3139Z" fill="#000091"/>
<path d="M15.0635 27.9723L20.0329 25.1148V23.9138V19.4043L15.0635 22.2618V27.9723Z" fill="#000091"/>
<path d="M8.41553 16.6284L9.23063 16.1532V12.7553C9.23063 11.9754 9.60032 11.2312 10.2239 10.7606C10.2239 10.7606 10.2328 10.7561 10.2373 10.7516C10.2373 10.7516 10.2417 10.7516 10.2462 10.7471C10.2551 10.7426 10.264 10.7337 10.2684 10.7337C10.3486 10.6754 10.4065 10.635 10.4733 10.5947L13.3507 8.92266V8.02612L8.41553 10.895V16.6284Z" fill="#000091"/>
<path d="M26.545 13.7595V8.02612L21.6099 10.895V16.6284L26.545 13.7595Z" fill="#000091"/>
<path d="M15.184 8.46644C15.233 8.47089 15.2775 8.48426 15.3265 8.48871C15.3844 8.49762 15.4468 8.51099 15.5047 8.52435C15.5582 8.53772 15.6071 8.55554 15.6561 8.57336C15.6962 8.58672 15.7363 8.59563 15.7764 8.609V7.63336C15.7764 7.55317 15.8209 7.48189 15.8878 7.44179L20.0702 5.02718V4.25647L15.135 7.10767V8.45753C15.135 8.45753 15.1706 8.46644 15.1885 8.46644H15.184Z" fill="#000091"/>
<path d="M9.27525 18.9037C9.28869 18.8814 9.31107 18.8636 9.33346 18.8458C9.33794 18.8458 9.34242 18.8369 9.3469 18.8325L10.1977 18.3429C10.1977 18.3429 10.1618 18.3073 10.1395 18.2895C10.0678 18.2272 9.99617 18.1649 9.929 18.0937C9.89766 18.0625 9.87079 18.0269 9.84392 17.9958C9.79019 17.9335 9.74094 17.8712 9.69616 17.8044C9.6872 17.791 9.67377 17.7777 9.66034 17.7599L9.63795 17.7732L8.41553 18.4764V24.1687L9.23495 23.697V19.0239C9.23495 18.9882 9.24839 18.9526 9.26182 18.9215C9.26182 18.9126 9.27077 18.9081 9.27525 18.8992V18.9037Z" fill="#000091"/>
<path d="M13.1473 7.629L8.1972 4.76953L3.24268 7.629L8.1972 10.4929L13.1473 7.629Z" fill="#000091"/>
<path d="M19.8627 3.86394L14.8933 1L9.92383 3.86394L14.8933 6.72341L19.8627 3.86394Z" fill="#000091"/>
<path d="M21.0604 10.3005L21.3868 10.4929L26.3413 7.629L21.3868 4.76953L20.412 5.33337L16.4368 7.629L18.5295 8.8417L21.0604 10.3005Z" fill="#000091"/>
<path d="M21.28 17.1916L20.4532 16.7157C20.4487 16.7468 20.4353 16.7824 20.4309 16.8135C20.4175 16.8892 20.3996 16.9648 20.3817 17.0359C20.3683 17.0804 20.3504 17.1249 20.337 17.1649C20.3147 17.2316 20.2923 17.2939 20.261 17.3606C20.2521 17.3784 20.2476 17.3918 20.2432 17.4096L21.3917 18.0678L26.3436 15.2212L25.633 14.812L21.5079 17.1827C21.4722 17.2005 21.4364 17.2139 21.3962 17.2139C21.356 17.2139 21.3202 17.205 21.2845 17.1827L21.28 17.1916Z" fill="#000091"/>
<path d="M16.0833 20.3326C15.9178 20.426 15.739 20.5016 15.5601 20.5594C15.4349 20.5995 15.3052 20.6217 15.1756 20.6395C15.1308 20.6439 15.0861 20.6439 15.0414 20.6484C14.9743 20.6528 14.9117 20.6617 14.8447 20.6617C14.8089 20.6617 14.7731 20.6617 14.7373 20.6617C14.7373 20.6617 14.7329 20.6617 14.7284 20.6617C14.5853 20.6573 14.4467 20.6395 14.3081 20.6084C14.1694 20.5772 14.0353 20.5372 13.9056 20.4838C13.8028 20.4393 13.6999 20.3904 13.5971 20.337L10.6011 18.6157L10.3641 18.7536L9.89014 19.0249L14.8447 21.8716L15.3813 21.5602L15.8865 21.2711L16.8971 20.6884L19.7947 19.0249L19.3207 18.7536L19.0837 18.6157L16.0878 20.337L16.0833 20.3326Z" fill="#000091"/>
<path d="M9.27146 16.7246C9.27146 16.6935 9.26252 16.6668 9.25805 16.6356L8.30543 17.1827C8.26965 17.2005 8.23387 17.2139 8.19362 17.2139C8.15337 17.2139 8.11759 17.205 8.08181 17.1827L3.95379 14.812L3.24268 15.2212L8.19809 18.0678L9.44589 17.3517C9.36986 17.1738 9.31172 16.9692 9.27594 16.7424C9.27594 16.7424 9.27594 16.7335 9.27594 16.729L9.27146 16.7246Z" fill="#000091"/>
</svg>

<svg xmlns="http://www.w3.org/2000/svg" width="29" height="29" fill="none" viewBox="0 0 29 29"><path fill="#000091" d="M20.033 12.743v-.022a2.06 2.06 0 0 0-1.024-1.758l-3.13-1.811a2 2 0 0 0-.97-.27c-.049 0-.093 0-.143.005-.24.014-.469.059-.684.144a3 3 0 0 0-.245.12l-1.905 1.104-1.185.686q-.107.06-.201.134s-.027.018-.031.018a2 2 0 0 0-.586.686q-.016.027-.031.054a.3.3 0 0 0-.023.054 2.2 2.2 0 0 0-.192.91v3.524c0 .063.005.13.014.21q.002.061.017.135c.036.242.117.471.228.677.184.341.456.624.792.816l3.076 1.78c.111.063.197.103.281.14q.325.133.676.147h.026c.22.005.443-.018.658-.085.147-.045.295-.107.429-.188l3.107-1.798a2.103 2.103 0 0 0 1.046-1.811zM9.682 19.404v5.711l4.935 2.857v-5.71l-1.15-.666z"/><path fill="#000091" d="m19.375 10.683.072.053c.031.023.063.05.094.072l.009.009.018.013c.036.031.076.063.107.094l.027.027.068.066.022.023.094.107q.026.029.045.058l.031.04q.014.017.027.032.047.06.086.129l.08.13q.039.074.077.147.032.064.058.13c.018.04.031.084.045.124 0 .01.004.014.009.023q0 .014.009.022l.04.12q.027.1.04.206v.009c0 .009.005.022.005.031 0 .022.009.04.013.063q.022.155.023.317v3.469l.69.397v-5.71l-4.969-2.858v.817l3.028 1.742q.073.039.148.093zM3 8.026v5.733l4.97 2.87v-5.734zM19.985 17.834c-.04.059-.085.108-.13.162l-.093.108c-.05.053-.107.098-.16.148q-.04.034-.081.076l.847.494c.067.04.112.112.112.193v4.788l.686.4v-5.74l-1.146-.67s-.022.028-.03.041zM13.795 7.646v1.032s.031-.01.05-.018c.088-.04.186-.072.28-.099q.112-.033.232-.053c.075-.014.146-.027.222-.036.027 0 .05-.009.076-.013V7.115L9.72 4.256v.898l3.964 2.295c.067.04.111.112.111.192zM3 21.314l4.97 2.855v-5.714L3 15.601zM26.545 21.314V15.6l-4.935 2.854v5.713z"/><path fill="#000091" d="m15.064 27.972 4.969-2.857v-5.711l-4.97 2.858zM8.416 16.628l.815-.475v-3.398c0-.78.37-1.524.993-1.994 0 0 .009-.005.013-.01q.001.001.01-.004c.008-.004.017-.013.021-.013.08-.059.138-.099.205-.14l2.878-1.671v-.897l-4.935 2.869zM26.545 13.76V8.025l-4.935 2.869v5.733zM15.184 8.466c.049.005.094.018.143.023.057.009.12.022.178.035q.079.022.151.05.06.018.12.035v-.976c0-.08.045-.151.112-.191l4.182-2.415v-.77l-4.935 2.85v1.35s.036.01.053.01zM9.275 18.904a.2.2 0 0 1 .058-.058c.005 0 .01-.01.014-.014l.85-.49s-.035-.035-.057-.052a3 3 0 0 1-.211-.196q-.046-.05-.085-.098a2 2 0 0 1-.148-.192q-.014-.018-.036-.044l-.022.013-1.222.703v5.693l.819-.472v-4.673c0-.036.013-.071.027-.102 0-.01.009-.014.013-.023zM13.147 7.629l-4.95-2.86-4.954 2.86 4.954 2.864zM19.863 3.864 14.893 1l-4.97 2.864 4.97 2.86z"/><path fill="#000091" d="m21.06 10.3.327.193 4.954-2.864-4.954-2.86-.975.564-3.975 2.296 2.092 1.213zM21.28 17.192l-.827-.476c-.004.03-.018.066-.022.098a3 3 0 0 1-.05.222q-.021.067-.044.129a2 2 0 0 1-.076.196.2.2 0 0 0-.018.049l1.149.658 4.952-2.847-.711-.409-4.125 2.37a.25.25 0 0 1-.112.032.2.2 0 0 1-.111-.031zM16.083 20.333a3 3 0 0 1-.523.226c-.125.04-.255.063-.384.08-.045.005-.09.005-.135.01-.067.004-.13.013-.196.013h-.117a2.484 2.484 0 0 1-.823-.178 5 5 0 0 1-.308-.147l-2.996-1.721-.237.138-.474.27 4.955 2.848.536-.312.505-.289 1.011-.583 2.898-1.663-.474-.271-.237-.138-2.996 1.721zM9.271 16.725c0-.032-.008-.058-.013-.09l-.953.548a.25.25 0 0 1-.111.03.2.2 0 0 1-.112-.03l-4.128-2.371-.711.41 4.955 2.846 1.248-.716a2.6 2.6 0 0 1-.17-.61v-.013z"/></svg>
